X:1
T:Lisdoonvarna Hornpipe 1
R:hornpipe
C:Trad
O:Ireland
W: Collected in Lisdoonvarana, Co. Clare
M:4/4
L:1/8
K:Gmaj
|: Bc | dedB GAGD | E2E2 D2GA | B2d2 dedB | A4 A2Bc |
| d2dB G2BG | E2E2 D2GA | B2dB AGAB | G4 G2 :|
|: Bd | e2ef g2ge | eddB d2Bd | efge edBG | A4 A2Bc |
| dedB GAGD | E2E2 D2GA | B2dB AGAB | G4 G2 :|

